X:375
T:Dunmore Kate. (p)1698.PLFD.375
M:4/4
L:1/4
Q:1/2=80
S:Playford, Dancing Master,9th Ed,2nd Supp.,1698.
O:England
H:1698.
Z:Chris Partington.
K:Bb
A|B/c/d2e/d/c/B/|BA/G/G>A|(B/c/)(d/e/)ff|dBf>d|
e>fga|bB2c|d/e/fA>B|cde>f|d>d=e>e|
^fga>a|bd2^f|gb2a/g/|(^f/e/)(d/c/)cd|BG2:|
